teeny/solid/floorplan.svg

<svg width="15" height="15" viewBox="0 0 15 15" fill="none" xmlns="http://www.w3.org/2000/svg">
<path fill-rule="evenodd" clip-rule="evenodd" d="M0 0H4.65139L7.77735 2.08397L7.22265 2.91603L4.34861 1H1V14H6V8H4V7H9V8H7V14H14V8H12V7H14V1H10V0H15V15H0V0Z" fill="black"/>
</svg>

<svg viewBox="0 0 15 15" xmlns="http://www.w3.org/2000/svg"><path fill-rule="evenodd" d="M0 0h4.65l3.12 2.08 -.56.83L4.33.99H.98v13h5v-6h-2v-1h5v1h-2v6h7v-6h-2v-1h2v-6h-4v-1h5v15h-15v-15Z"/></svg>
